svg/UnitedNationsOCHA-Humanitarian/food_NFI_mattress_icon_box.svg

<svg xmlns="http://www.w3.org/2000/svg" viewBox="0 0 32 32" enable-background="new 0 0 32 32"><path fill="#407cca" d="m20.677 6.294v2.982c0 .53-.569.955-1.263.955h-6.825c-.693 0-1.262-.425-1.262-.955v-2.982c0-.53.569-.955 1.262-.955h6.825c.693 0 1.263.425 1.263.955m11.323.106v19.2c0 3.521-2.88 6.4-6.4 6.4h-19.2c-3.52 0-6.4-2.88-6.4-6.4v-19.2c0-3.52 2.88-6.4 6.4-6.4h19.2c3.52 0 6.4 2.88 6.4 6.4m-7.695.837c0-2.396-1.453-3.237-3.238-3.237h-10.128c-1.788 0-3.244.911-3.244 3.237v17.519c0 2.664 1.456 3.244 3.244 3.244h10.128c1.784 0 3.237-.472 3.237-3.244v-17.519"/></svg>

<?xml version="1.0" encoding="utf-8"?>
<!-- Generator: Adobe Illustrator 16.0.3, SVG Export Plug-In . SVG Version: 6.00 Build 0)  -->
<!DOCTYPE svg PUBLIC "-//W3C//DTD SVG 1.1//EN" "http://www.w3.org/Graphics/SVG/1.1/DTD/svg11.dtd">
<svg version="1.1" id="Layer_1" xmlns="http://www.w3.org/2000/svg" xmlns:xlink="http://www.w3.org/1999/xlink" x="0px" y="0px"
	 width="32px" height="32px" viewBox="0 0 32 32" enable-background="new 0 0 32 32" xml:space="preserve">
<path fill="#407CCA" d="M20.677,6.294v2.982c0,0.53-0.569,0.955-1.263,0.955h-6.825c-0.693,0-1.262-0.425-1.262-0.955V6.294
	c0-0.53,0.569-0.955,1.262-0.955h6.825C20.107,5.339,20.677,5.764,20.677,6.294z M32,6.4v19.2c0,3.521-2.88,6.4-6.4,6.4H6.4
	C2.88,32,0,29.12,0,25.6V6.4C0,2.88,2.88,0,6.4,0h19.2C29.12,0,32,2.88,32,6.4z M24.305,7.237C24.305,4.841,22.852,4,21.067,4
	H10.939C9.151,4,7.695,4.911,7.695,7.237v17.519C7.695,27.42,9.151,28,10.939,28h10.128c1.784,0,3.237-0.472,3.237-3.244V7.237z"/>
</svg>
